Origami/64x64/apps/qjackctl.svg

<svg width="64" height="64" version="1" xmlns="http://www.w3.org/2000/svg">
 <path d="m24.858171 29.00032h14.285658c1.581984 0 2.855971 1.189988 2.855971 2.665973v26.665734c0 1.477985-1.273987 2.667973-2.857971 2.667973h-14.285858c-1.581984 0-2.855971-1.189988-2.855971-2.665973v-26.667734c0-1.475985 1.273987-2.665973 2.857971-2.665973z" style="opacity:.2"/>
 <path d="m28.00014 12.0005h7.99992v17.99982h-7.99992z" style="fill:#b7b7b7"/>
 <path d="m24.858171 28.00034h14.285658c1.581984 0 2.855971 1.189988 2.855971 2.665973v26.665734c0 1.477985-1.273987 2.667973-2.857971 2.667973h-14.285858c-1.581984 0-2.855971-1.189988-2.855971-2.665973v-26.667734c0-1.475985 1.273987-2.665973 2.857971-2.665973z" style="fill:#4f4f4f"/>
 <path d="m32.0001 4.00008 3.99996 1.99998-1.527845 5.99994h-4.94415l-1.527985-5.99994z" style="fill:#b7b7b7"/>
 <rect x="28" y="23" width="8" height="1" style="fill:#4f4f4f"/>
 <rect x="28" y="19" width="8" height="1" style="fill:#4f4f4f"/>
 <path d="m28 12v1h8v-1h-8z" style="fill:#ffffff;opacity:.2"/>
 <path d="M 32 4 L 28 6 L 28.226562 6.8867188 L 32 5 L 35.773438 6.8867188 L 36 6 L 32 4 z" style="fill:#ffffff;opacity:.2"/>
</svg>

<svg xmlns="http://www.w3.org/2000/svg" width="64" height="64" version="1">
 <path style="opacity:0.2" d="m 24.858171,29.00032 14.285658,0 c 1.581984,0 2.855971,1.189988 2.855971,2.665973 l 0,26.665734 C 41.9998,59.810012 40.725813,61 39.141829,61 L 24.855971,61 C 23.273987,61 22,59.810012 22,58.334027 l 0,-26.667734 c 0,-1.475985 1.273987,-2.665973 2.857971,-2.665973 z"/>
 <path style="fill:#b7b7b7" d="m 28.00014,12.0005 7.99992,0 0,17.99982 -7.99992,0 z"/>
 <path style="fill:#4f4f4f" d="m 24.858171,28.00034 14.285658,0 c 1.581984,0 2.855971,1.189988 2.855971,2.665973 l 0,26.665734 c 0,1.477985 -1.273987,2.667973 -2.857971,2.667973 l -14.285858,0 C 23.273987,60.00002 22,58.810032 22,57.334047 l 0,-26.667734 c 0,-1.475985 1.273987,-2.665973 2.857971,-2.665973 z"/>
 <path style="fill:#b7b7b7" d="M 32.0001,4.00008 36.00006,6.00006 34.472215,12 29.528065,12 28.00008,6.00006 Z"/>
 <rect style="fill:#4f4f4f" width="8" height="1" x="28" y="23"/>
 <rect style="fill:#4f4f4f" width="8" height="1" x="28" y="19"/>
 <path style="opacity:0.2;fill:#ffffff" d="M 28 12 L 28 13 L 36 13 L 36 12 L 28 12 z"/>
 <path style="opacity:0.2;fill:#ffffff" d="M 32 4 L 28 6 L 28.226562 6.8867188 L 32 5 L 35.773438 6.8867188 L 36 6 L 32 4 z"/>
</svg>
